public/images/poses-lg/HappyBaby.svg

<svg width="800" height="800" fill="none" xmlns="http://www.w3.org/2000/svg"><g clip-path="url(#a)" stroke="#000" stroke-width="5" stroke-miterlimit="10"><path d="M223.141 760.032c14.001-16.818 39.205-42.046 39.205-42.046s53.207 14.015 89.612-22.423c36.405-36.439 100.814 30.833 100.814 30.833l81.211 30.833s14.001 28.029 30.804 36.438c0 0-33.605 0-72.81-2.803-39.204-2.804-134.418 0-154.021 0-19.602 0-30.087-4.169-39.205-22.424-8.401-16.817-75.61-8.408-75.61-8.408Z" fill="#fff"/><path d="M223.141 760.032c14.001-16.818 39.205-42.046 39.205-42.046s53.207 14.015 89.612-22.423c36.405-36.439 100.814 30.833 100.814 30.833l81.211 30.833s14.001 28.029 30.804 36.438c0 0-33.605 0-72.81-2.803-39.204-2.804-134.418 0-154.021 0-19.602 0-30.087-4.169-39.205-22.424-8.401-16.817-75.61-8.408-75.61-8.408Z"/><path d="M564.788 793.669c22.403 2.803 78.411 5.606 92.412-25.228 14.002-30.833.247-69.24-33.605-78.484-30.804-8.409-86.812-11.213-109.215-11.213h-53.208s5.601-89.696 5.601-137.347c0-47.651-5.601-70.075-5.601-89.696 0-19.621 11.203-33.636-2.8-33.636-14.004 0-72.811-5.606-81.212 0-8.401 5.606-5.633 11.611 28.004 14.015 39.206 2.802 36.405 33.636 36.405 33.636s-44.807 196.21-47.607 227.043c-2.801 30.833 22.404 47.651 56.008 53.256 33.606 5.607 84.012 11.214 84.012 11.214a70.667 70.667 0 0 0 28.686 35.12l2.12 1.32Z" fill="#fff"/><path d="M564.788 793.669c22.403 2.803 78.411 5.606 92.412-25.228 14.002-30.833.247-69.24-33.605-78.484-30.804-8.409-86.812-11.213-109.215-11.213h-53.208s5.601-89.696 5.601-137.347c0-47.651-5.601-70.075-5.601-89.696 0-19.621 11.203-33.636-2.8-33.636-14.004 0-72.811-5.606-81.212 0-8.401 5.606-5.633 11.611 28.004 14.015 39.206 2.802 36.405 33.636 36.405 33.636s-44.807 196.21-47.607 227.043c-2.801 30.833 22.404 47.651 56.008 53.256 33.606 5.607 84.012 11.214 84.012 11.214a70.667 70.667 0 0 0 28.686 35.12l2.12 1.32Z"/><path d="M462.342 470.296c-12.37-1.774-17.971-1.774-26.372 1.029"/><path d="M312.048 731.613c-2.101 4.073-8.998 13.873-9.44 18.204-1.055 10.218-1.622 23.365 10.146 32.015 11.765 8.643 32.13-.759 38.477-13.786 6.348-13.02 5.777-17.415 8.144-23.187 2.363-5.768 26.12-48.359 41.11-80.091 14.991-31.736 29.152-80.543 32.954-111.375 3.796-30.834 8.231-64.004 10.096-76.618 1.865-12.613 8.845-51.27 3.285-65.112-5.561-13.837-16.729-13.125-20.505 5.878-3.783 18.999-1.332 40.372-3.957 60.171-2.624 19.793-14.991 74.744-23.393 98.57-8.401 23.825-4.436 23.171-32.676 76.382-28.24 53.208-54.241 78.949-54.241 78.949Z" fill="#fff"/><path d="M312.048 731.613c-2.101 4.073-8.998 13.873-9.44 18.204-1.055 10.218-1.622 23.365 10.146 32.015 11.765 8.643 32.13-.759 38.477-13.786 6.348-13.02 5.777-17.415 8.144-23.187 2.363-5.768 26.12-48.359 41.11-80.091 14.991-31.736 29.152-80.543 32.954-111.375 3.796-30.834 8.231-64.004 10.096-76.618 1.865-12.613 8.845-51.27 3.285-65.112-5.561-13.837-16.729-13.125-20.505 5.878-3.783 18.999-1.332 40.372-3.957 60.171-2.624 19.793-14.991 74.744-23.393 98.57-8.401 23.825-4.436 23.171-32.676 76.382-28.24 53.208-54.241 78.949-54.241 78.949Z"/><path d="M242.194 750.293c-8.609 5.239-16.274 3.768-27.167 5.797-17.303 3.233-35.103-17.415-34.603-37.093.667-25.984 93.214-30.166 95.287-15.194 1.091 7.889-5.719 20.091-17.721 30.866-3.799 3.405-7.523 6.898-11.029 10.598l-4.767 5.026Z" fill="#fff"/><path d="M242.194 750.293c-8.609 5.239-16.274 3.768-27.167 5.797-17.303 3.233-35.103-17.415-34.603-37.093.667-25.984 93.214-30.166 95.287-15.194 1.091 7.889-5.719 20.091-17.721 30.866-3.799 3.405-7.523 6.898-11.029 10.598l-4.767 5.026Z"/><path d="M192.659 704.005c14.527-.039 26.943 17.458 24.32 26.177-2.622 8.718-3.413 14.975-.539 16.142 2.875 1.163 7.821.95 8.429-1.631.605-2.579-.219-8.47 4.863-8.319 5.089.151 17.22 9.1 19.859 19.747 2.642 10.648-7.097 23.768-23.447 27.249-16.349 3.49-37.075-11.906-47.278-28.797-4.923-8.146-7.012-18.121-5.921-26.464 1.788-13.752 5.449-24.063 19.714-24.104Z" fill="#000"/><path d="M296.128 765.25c-1.578-20.632 13.409-41.038 25.518-50.459"/><path d="M70.062 774.745c2.237 11.069 8.99 23.397 27.48 19.82 13.996-2.709 32.303-22.523 41.222-24.948 8.913-2.43 12.625 7.771 26.752 7.246 14.133-.524 19.045-10.299 25.385-17.502 0 0-5.451-26.306-20.033-28.405s-17.597 6.013-30.009 4.631c-15.094-1.675-14.832-23.926-35.013-26.324-14.396-1.708-25.549 3.009-30.926 12.319-8.96 15.516-8.863 33.361-4.858 53.163Z" fill="#000"/></g><defs><clipPath id="a"><path fill="#fff" d="M0 0h800v800H0z"/></clipPath></defs></svg>

<svg width="800" height="800" viewBox="0 0 800 800" fill="none" xmlns="http://www.w3.org/2000/svg">
<g clip-path="url(#clip0_298_12118)">
<path d="M223.141 760.032C237.142 743.214 262.346 717.986 262.346 717.986C262.346 717.986 315.553 732.001 351.958 695.563C388.363 659.124 452.772 726.396 452.772 726.396L533.983 757.229C533.983 757.229 547.984 785.258 564.787 793.667C564.787 793.667 531.182 793.667 491.977 790.864C452.773 788.06 357.559 790.864 337.956 790.864C318.354 790.864 307.869 786.695 298.751 768.44C290.35 751.623 223.141 760.032 223.141 760.032Z" fill="white" stroke="black" stroke-width="5" stroke-miterlimit="10"/>
<path d="M223.141 760.032C237.142 743.214 262.346 717.986 262.346 717.986C262.346 717.986 315.553 732.001 351.958 695.563C388.363 659.124 452.772 726.396 452.772 726.396L533.983 757.229C533.983 757.229 547.984 785.258 564.787 793.667C564.787 793.667 531.182 793.667 491.977 790.864C452.773 788.06 357.559 790.864 337.956 790.864C318.354 790.864 307.869 786.695 298.751 768.44C290.35 751.623 223.141 760.032 223.141 760.032Z" stroke="black" stroke-width="5" stroke-miterlimit="10"/>
<path d="M564.788 793.669C587.191 796.472 643.199 799.275 657.2 768.441C671.202 737.608 657.447 699.201 623.595 689.957C592.791 681.548 536.783 678.744 514.38 678.744H461.172C461.172 678.744 466.773 589.048 466.773 541.397C466.773 493.746 461.172 471.322 461.172 451.701C461.172 432.08 472.375 418.065 458.372 418.065C444.368 418.065 385.561 412.459 377.16 418.065C368.759 423.671 371.527 429.676 405.164 432.08C444.37 434.882 441.569 465.716 441.569 465.716C441.569 465.716 396.762 661.926 393.962 692.759C391.161 723.592 416.366 740.41 449.97 746.015C483.576 751.622 533.982 757.229 533.982 757.229C539.428 771.775 549.513 784.114 562.668 792.349L564.788 793.669Z" fill="white" stroke="black" stroke-width="5" stroke-miterlimit="10"/>
<path d="M564.788 793.669C587.191 796.472 643.199 799.275 657.2 768.441C671.202 737.608 657.447 699.201 623.595 689.957C592.791 681.548 536.783 678.744 514.38 678.744H461.172C461.172 678.744 466.773 589.048 466.773 541.397C466.773 493.746 461.172 471.322 461.172 451.701C461.172 432.08 472.375 418.065 458.372 418.065C444.368 418.065 385.561 412.459 377.16 418.065C368.759 423.671 371.527 429.676 405.164 432.08C444.37 434.882 441.569 465.716 441.569 465.716C441.569 465.716 396.762 661.926 393.962 692.759C391.161 723.592 416.366 740.41 449.97 746.015C483.576 751.622 533.982 757.229 533.982 757.229C539.428 771.775 549.513 784.114 562.668 792.349L564.788 793.669Z" stroke="black" stroke-width="5" stroke-miterlimit="10"/>
<path d="M462.342 470.296C449.972 468.522 444.371 468.522 435.97 471.325" stroke="black" stroke-width="5" stroke-miterlimit="10"/>
<path d="M312.048 731.613C309.947 735.686 303.05 745.486 302.608 749.817C301.553 760.035 300.986 773.182 312.754 781.832C324.519 790.475 344.884 781.073 351.231 768.046C357.579 755.026 357.008 750.631 359.375 744.859C361.738 739.091 385.495 696.5 400.485 664.768C415.476 633.032 429.637 584.225 433.439 553.393C437.235 522.559 441.67 489.389 443.535 476.775C445.4 464.162 452.38 425.505 446.82 411.663C441.259 397.826 430.091 398.538 426.315 417.541C422.532 436.54 424.983 457.913 422.358 477.712C419.734 497.505 407.367 552.456 398.965 576.282C390.564 600.107 394.529 599.453 366.289 652.664C338.049 705.872 312.048 731.613 312.048 731.613Z" fill="white" stroke="black" stroke-width="5" stroke-miterlimit="10"/>
<path d="M312.048 731.613C309.947 735.686 303.05 745.486 302.608 749.817C301.553 760.035 300.986 773.182 312.754 781.832C324.519 790.475 344.884 781.073 351.231 768.046C357.579 755.026 357.008 750.631 359.375 744.859C361.738 739.091 385.495 696.5 400.485 664.768C415.476 633.032 429.637 584.225 433.439 553.393C437.235 522.559 441.67 489.389 443.535 476.775C445.4 464.162 452.38 425.505 446.82 411.663C441.259 397.826 430.091 398.538 426.315 417.541C422.532 436.54 424.983 457.913 422.358 477.712C419.734 497.505 407.367 552.456 398.965 576.282C390.564 600.107 394.529 599.453 366.289 652.664C338.049 705.872 312.048 731.613 312.048 731.613Z" stroke="black" stroke-width="5" stroke-miterlimit="10"/>
<path d="M242.194 750.293C233.585 755.532 225.92 754.061 215.027 756.09C197.724 759.323 179.924 738.675 180.424 718.997C181.091 693.013 273.638 688.831 275.711 703.803C276.802 711.692 269.992 723.894 257.99 734.669C254.191 738.074 250.467 741.567 246.961 745.267L242.194 750.293Z" fill="white" stroke="black" stroke-width="5" stroke-miterlimit="10"/>
<path d="M242.194 750.293C233.585 755.532 225.92 754.061 215.027 756.09C197.724 759.323 179.924 738.675 180.424 718.997C181.091 693.013 273.638 688.831 275.711 703.803C276.802 711.692 269.992 723.894 257.99 734.669C254.191 738.074 250.467 741.567 246.961 745.267L242.194 750.293Z" stroke="black" stroke-width="5" stroke-miterlimit="10"/>
<path d="M192.659 704.005C207.186 703.966 219.602 721.463 216.979 730.182C214.357 738.9 213.566 745.157 216.44 746.324C219.315 747.487 224.261 747.274 224.869 744.693C225.474 742.114 224.65 736.223 229.732 736.374C234.821 736.525 246.952 745.474 249.591 756.121C252.233 766.769 242.494 779.889 226.144 783.37C209.795 786.86 189.069 771.464 178.866 754.573C173.943 746.427 171.854 736.452 172.945 728.109C174.733 714.357 178.394 704.046 192.659 704.005Z" fill="black" stroke="black" stroke-width="5" stroke-miterlimit="10"/>
<path d="M296.128 765.25C294.55 744.618 309.537 724.212 321.646 714.791" stroke="black" stroke-width="5" stroke-miterlimit="10"/>
<path d="M70.0621 774.745C72.2987 785.814 79.052 798.142 97.5416 794.565C111.538 791.856 129.845 772.042 138.764 769.617C147.677 767.187 151.389 777.388 165.516 776.863C179.649 776.339 184.561 766.564 190.901 759.361C190.901 759.361 185.45 733.055 170.868 730.956C156.286 728.857 153.271 736.969 140.859 735.587C125.765 733.912 126.027 711.661 105.846 709.263C91.4498 707.555 80.2973 712.272 74.9198 721.582C65.9595 737.098 66.0569 754.943 70.0621 774.745Z" fill="black" stroke="black" stroke-width="5" stroke-miterlimit="10"/>
</g>
<defs>
<clipPath id="clip0_298_12118">
<rect width="800" height="800" fill="white"/>
</clipPath>
</defs>
</svg>
